X:1
T:Title
T:강승모-내 눈물속의 그대
T:채보 : Han C
T:https://hanmel.blog.me/
C:Composer
%%score ( 1 2 )
L:1/8
Q:1/4=63
M:2/4
K:C
V:1 perc nm="드럼세트" snm="D. Set"
K:none
I:percmap A A 41 normal
I:percmap ^a a 49 x
I:percmap ^c c 37 x
I:percmap ^f f 51 x
I:percmap ^g g 42 x
I:percmap c c 38 normal
I:percmap d d 45 normal
I:percmap e e 47 normal
V:2 perc 
K:none
I:percmap F F 36 normal
V:1
"^\n" z4 |[M:4/4] ^g2 z2 z4 | ^g2 z2 z4 | z2 z2 ^g2 z2 | z2 z2 z2 z ^g/^g/ | ^g2 z2 z4 | z8 | z8 | %8
w: ||||||||
 z8 | z8 | z8 | z8 | z8 | z8 | z2 ^g2 z2 ^g2 | z2 ^g2 z2 ^g2 | z2 ^g2 z2 ^g2 | z2 ^g2 z2 ^g2 | %18
w: ||||||소리낼수없는 *||||
 z2 ^g2 z2 ^g2 | z2 ^g2 z2 ^g2 | z2 ^g2 z2 ^g2 | z2 ^g2 z2 [^c^g]2 | ^a^g[^c^g]^g ^g^g[^c^g]^g | %23
w: 킬수 없는||||같 은 추 억 * * * *|
 ^g^g[^c^g]^g ^g^g[^c^g]^g | ^g^g[^c^g]^g ^g^g[^c^g]^g | ^g^g[^c^g]^g ^g^g[^c^g]^g | %26
w: |||
 ^g^g[^c^g]^g ^g^g[^c^g]^g | ^g^g[^c^g]^g ^g^g[^c^g]^g | ^g^g[^c^g]^g ^g^g[^c^g]^g | %29
w: |||
 ^a^g[^c^g]^g{/c} ce/e/ d/d/A/A/ |"^Open Hi-Hat" ^a^g[c^g]^g ^g^g[c^g]^g | %31
w: |어 떡 하 나 요 * * *|
 ^g^g[c^g]^a z/{/e} ed/{/A} A<^a | ^a^g[c^g]^g ^g^g[c^g]^g | ^g^g[c^g]^a{/e} e/>e/e/d/{/A} A<^a | %34
w: 이 사 랑 을 * * * *|돌 아 갈 길을 * * * *|난 몰 라 요 * * * * * *|
 ^a^g[c^g]^g ^g^g[c^g]^g | ^g^g[c^g]^a z/{/e} e/e{/c} c<^a | ^a^g[c^g]^g ^g/c/^g [c^g]^g | %37
w: * * 그 대 없이 는 * *|난 안 돼 요 * * * *|* * 어 떡 하나 * 요 * *|
 ^a^g[c^g]^a z/{/e} e/e c/c/4c/4d/A/ |"^Ride(Guitar solo)\n" ^a^f[c^f]^f ^f^f[c^f]^f | %39
w: * 사 랑 을 * 내 사랑 을 * * *||
 ^f^f[c^f]^f ^f^f[c^f]^f | ^f^f[c^f]^f ^f^f[c^f]^f | ^f^f[c^f]^f ^f/c/^f [c^f]^f | %42
w: |||
 ^f^f[c^f]^f ^f^f[c^f]^f | ^f^f[c^f]^f ^f^f[c^f]^f | ^f^f[c^f]^f ^f^f[c^f]^f | %45
w: |||
 ^f^f[c^f]^f z3/2 e/ dA |"^Closed Hi-Hat" ^a^g[c^g]^g ^g^g[c^g]^g | ^g^g[c^g]^g ^g^g[c^g]^g | %48
w: |* * 소리 낼수 없는 * * *|사 랑 이 * * * * *|
 ^g^g[c^g]^g ^g^g[c^g]^g | ^g^g[c^g]^g ^g^g[c^g]^g | ^g^g[c^g]^g ^g^g[c^g]^g | %51
w: ||* * 돌이 킬수 없는 * * *|
 ^g^g[c^g]^g ^g^g[c^g]^g | ^g^g[c^g]^g ^g^g[c^g]^g | ^a^g[c^g]^g ^g^g[c^g]^g | %54
w: 사 랑 이 * * * * *|||
 ^g^g[c^g]^g ^g^g[c^g]^g | ^g^g[c^g]^g ^g^g[c^g]^g | ^g^g[c^g]^g ^g^g[c^g]^g | %57
w: * * 같 은 추 억 으 로||다 른 세 상 을 * * *|
 ^g^g[c^g]^g ^g^g[c^g]^g | ^a^g[c^g]^g ^g^g[c^g]^g | ^g^g[c^g]^g ^g^g[c^g]^g | %60
w: |* * 우 린 서 로 다 른|길 에 서 * * * 웃 음|
 ^g^g[c^g]^g ^g^g[c^g]^g | ^a^g[c^g]^g{/c} ce/e/ d/d/A/A/ |"^Open Hi-Hat" ^a^g[c^g]^g ^g^g[c^g]^g | %63
w: 을 * * * 웃 지 못 해||* * 어 떡 하 나 요 *|
 ^g^g[c^g]^a z/{/e} ed/{/A} A<^a | ^a^g[c^g]^g ^g^g[c^g]^g | ^g^g[c^g]^a e/>e/e/d/{/A} A<^a | %66
w: 이 사 랑 을 * * * *|돌 아 갈 길을 * * * *|난 몰 라 요 * * * * * *|
 ^a^g[c^g]^g ^g^g[c^g]^g | ^g^g[c^g]^a z/{/e} e/e{/c} c<^a | ^a^g[c^g]^g ^g^g[c^g]^g | %69
w: * * 그 대 없이 는 * *|난 안 돼 요 * * * *|* * 어 떡 하나 요 * *|
 ^g^g[c^g]^a z/{/e} e/e (6:4:6e/e/d/d/A/A/ |"^Ride" ^a^f[c^a]^f ^f^f[c^f]^f | %71
w: 이 사 랑 을 * 내 사 랑 을 * * *||
 ^f^f[c^f]^f ^f^f[c^a]^f | ^a^f[c^f]^f ^f^f[c^f]^f | ^f^f[c^f]^f ^f^f[c^f]^f | %74
w: |||
 [Ac]/[Ac]/[Ac] [c^f]^f ^f^f[c^f]^f | ^f^f[c^a]^f ^f^f[c^a]^f | ^f^f[c^f]^f ^f^f[c^f]^f | %77
w: |||
 ^f^f [c^f]c/c/ e/<e/ z/ e/4e/4 e/>e/d/A/ | ^a^f[c^f]^f ^f^f[c^a]^f | ^f^f[c^a]^f ^f^f[c^a]^f | %80
w: |||
 ^f^f[c^f]^f ^f^f[c^a]^f | ^f^f [c^f]c/c/ c/c/[c^a] d/d/A/A/ |"^Fade out" ^f^f[c^f]^f ^f^f[c^f]^f | %83
w: |||
 ^f^f[c^a]^f ^f^f[c^a]^f | ^f^f[c^a]^f ^f^f[c^a]^f |] %85
w: ||
V:2
 x4 |[M:4/4] x8 | x8 | x8 | x8 | x8 | x8 | x8 | x8 | x8 | x8 | x8 | x8 | x8 | F2 z2 z4 | F2 z2 z4 | %16
w: ||||||||||||||||
 F2 z2 z4 | F2 z2 z4 | F2 z2 z4 | F2 z2 z4 | F2 z2 z4 | F2 z2 z4 | F2 z2 F2 z2 | F2 z2 F2 z2 | %24
w: ||||||||
 F2 z2 F2 z2 | F2 z2 F2 z2 | F2 z2 F2 z2 | F2 z2 F2 z2 | F2 z2 F2 z2 | F2 z z/ F/ F2 z2 | %30
w: ||우린서로 *||||
 F2 z z/ F/ FF z2 | F2 z F F2 z/ F3/2 | F2 z z/ F/ FF z2 | F2 z F z2 z/ F3/2 | F2 z z/ F/ FF z2 | %35
w: |||||
 F2 z F z2 z/ F3/2 | F2 z z/ F/ FF z2 | F2 z F z2 z2 | F2 z z/ F/ FF z2 | F2 z z/ F/ FF z2 | %40
w: |||||
 F2 z z/ F/ FF z2 | F2 z z/ F/ FF z2 | F2 z z/ F/ FF z2 | F2 z z/ F/ FF z2 | F2 z z/ F/ FF z2 | %45
w: |||||
 F2 z z/ F/ F2 z2 | F2 z z/ F/ FF z2 | F2 z z/ F/ FF z2 | F2 z z/ F/ FF z2 | F2 z z/ F/ FF z2 | %50
w: |||||
 F2 z z/ F/ FF z2 | F2 z z/ F/ FF z2 | F2 z z/ F/ FF z2 | F2 z z/ F/ FF z2 | F2 z z/ F/ FF z2 | %55
w: |||||
 F2 z z/ F/ FF z2 | F2 z z/ F/ FF z2 | F2 z z/ F/ FF z2 | F2 z z/ F/ FF z2 | F2 z z/ F/ FF z2 | %60
w: |||||
 F2 z z/ F/ FF z2 | F2 z z/ F/ F2 z2 | F2 z z/ F/ FF z2 | F2 z F F2 z/ F3/2 | F2 z z/ F/ FF z2 | %65
w: |||||
 F2 z F z2 z/ F3/2 | F2 z z/ F/ FF z2 | F2 z F z2 z/ F3/2 | F2 z z/ F/ FF z2 | F2 z F z2 z2 | %70
w: |||||
 F2 z z/ F/ FF z2 | F2 z z/ F/ FF z2 | F2 z z/ F/ FF z2 | F2 z z/ F/ FF z2 | F2 z z/ F/ FF z2 | %75
w: |||||
 F2 z z/ F/ FF z2 | F2 z z/ F/ FF z2 | F2 z2 z4 | F2 z z/ F/ FF z2 | F2 z z/ F/ FF z2 | %80
w: |||||
 F2 z z/ F/ FF z2 | F2 z2 F2 z2 | F2 z z/ F/ FF z2 | F2 z z/ F/ FF z2 | F2 z z/ F/ FF z2 |] %85
w: |||||

